assets/img/LOGOS/figma/natural.svg

<svg width="364" height="377" fill="none" xmlns="http://www.w3.org/2000/svg"><path d="M362 188.667c0 103.093-80.588 186.666-180 186.666S2 291.76 2 188.667C2 85.573 82.588 2 182 2s180 83.573 180 186.667z" stroke="#C8B268" stroke-width="3" stroke-miterlimit="10"/><path d="M125.998 142.257l-7.154-49.692s-1.364-4.943 2.558-4.26c3.921.68 56.937 8.182 56.937 8.182s4.807.51 4.536 4.432c-.273 3.922-1.636 36.142-22.604 42.108-8.525 2.386-16.537-4.604-16.879-8.354-.34-3.75 33.926-9.035 45.688 23.014 10.399 32.22 11.251 47.051 11.251 47.051s.853 2.557-2.045 2.387c-2.899-.171-14.66-8.183 1.534-12.955l9.546-.341s8.354-.171 8.354 5.965c0 6.137-4.602 7.331-7.16 7.16-2.557-.169-1.534-3.128-1.534-3.128s2.897-72.221 1.874-74.949c.171-3.58 1.366-4.774 4.434-4.603 3.58.171 38.016 3.751 38.868 4.432.852.683 4.602.341 3.24 4.773-1.366 4.434-10.571 29.322-36.996 17.56-4.09-2.046 5.457-5.966 7.33-6.137 2.388-.512 13.64-3.069 26.936 2.728 13.298 5.795 10.911 5.113 10.911 5.113s3.068 1.195 3.921-4.432c.852-5.625 4.944-32.39 4.603-35.288-.341-2.898 1.364-3.58-4.943-5.796-6.308-2.216-105.865-40.233-120.868-48.926-3.409-1.364-7.16-2.387-7.16.852 0 3.238 1.471 32.433 1.471 32.433m-16.07 54.69l-.579-4.02" stroke="#C7B169" stroke-width="2.667" stroke-miterlimit="10" stroke-linecap="round" stroke-linejoin="round"/><path d="M127.369 206.656l-2.492 111.47s-.74 3.377-2.112 1.172c-1.028-1.655 1.193-22.332 24.208-27.278 23.015-4.942 46.369-5.752 58.473 8.696 13.467 15.854 9.035 17.218 7.672 16.194-1.365-1.022-31.197-33.668-34.266-37.672-1.888-2.467-7.842-20.288 11.422-18.754-5.456-4.433-28.128-8.865-46.541-29.664-18.411-20.797-34.435-63.074-34.435-63.074s-1.193-1.876 1.194-2.216c2.386-.342 39.378-6.82 50.46-5.456 10.398 1.876 21.82 27.105 9.546 42.618-4.602 5.627-28.81 8.866-30.856 2.728-1.685-5.056-8.052-32.594-10.305-42.41m-2.855-15.752c2.702-5.648 7.927-11.217 17.883-13.77M123.881 163.4s-1.222-8.15 2.601-16.14" stroke="#C7B169" stroke-width="2.667" stroke-miterlimit="10" stroke-linecap="round" stroke-linejoin="round"/><path d="M188.396 259.275c2.421 1.304 3.862 1.76 6.408 2.05 6.393.734 12.188-6.218 12.188-12.652 0-6.436-5.163-12.164-11.598-12.164" stroke="#C7B169" stroke-width="2.667" stroke-miterlimit="10" stroke-linecap="round" stroke-linejoin="round"/><path d="M178.191 221.296s8.055-6.264 8.375-6.648c.32-.383 1.279-1.407 3.069 0 1.79 1.405 6.584 6.072 13.679.384 1.792-1.103 2.303-.96 2.877-.384.576.574 9.719 7.862 9.719 7.862s2.3 1.151.831 4.219c-1.471 3.069-20.97 20.457-39.892 0-2.622-2.941 1.342-5.433 1.342-5.433zm-1.821 2.588l40.434.224" stroke="#C7B169" stroke-width="2.667" stroke-miterlimit="10" stroke-linecap="round" stroke-linejoin="round"/></svg>

<svg width="364" height="377" viewBox="0 0 364 377" fill="none" xmlns="http://www.w3.org/2000/svg">
<path d="M362 188.667C362 291.76 281.412 375.333 182 375.333C82.588 375.333 2 291.76 2 188.667C2 85.5733 82.588 2 182 2C281.412 2 362 85.5733 362 188.667Z" stroke="#C8B268" stroke-width="3" stroke-miterlimit="10"/>
<path d="M125.998 142.257L118.844 92.5646C118.844 92.5646 117.48 87.6219 121.402 88.3046C125.323 88.9846 178.339 96.4873 178.339 96.4873C178.339 96.4873 183.146 96.9979 182.875 100.919C182.602 104.841 181.239 137.061 160.271 143.027C151.746 145.413 143.734 138.423 143.392 134.673C143.052 130.923 177.318 125.638 189.08 157.687C199.479 189.907 200.331 204.738 200.331 204.738C200.331 204.738 201.184 207.295 198.286 207.125C195.387 206.954 183.626 198.942 199.82 194.17L209.366 193.829C209.366 193.829 217.72 193.658 217.72 199.794C217.72 205.931 213.118 207.125 210.56 206.954C208.003 206.785 209.026 203.826 209.026 203.826C209.026 203.826 211.923 131.605 210.9 128.877C211.071 125.297 212.266 124.103 215.334 124.274C218.914 124.445 253.35 128.025 254.202 128.706C255.054 129.389 258.804 129.047 257.442 133.479C256.076 137.913 246.871 162.801 220.446 151.039C216.356 148.993 225.903 145.073 227.776 144.902C230.164 144.39 241.416 141.833 254.712 147.63C268.01 153.425 265.623 152.743 265.623 152.743C265.623 152.743 268.691 153.938 269.544 148.311C270.396 142.686 274.488 115.921 274.147 113.023C273.806 110.125 275.511 109.443 269.204 107.227C262.896 105.011 163.339 66.9939 148.336 58.3006C144.927 56.9366 141.176 55.9139 141.176 59.1526C141.176 62.3913 142.647 91.5859 142.647 91.5859" stroke="#C7B169" stroke-width="2.66667" stroke-miterlimit="10" stroke-linecap="round" stroke-linejoin="round"/>
<path d="M126.577 146.276L125.998 142.256" stroke="#C7B169" stroke-width="2.66667" stroke-miterlimit="10" stroke-linecap="round" stroke-linejoin="round"/>
<path d="M127.369 206.656L124.877 318.126C124.877 318.126 124.137 321.503 122.765 319.298C121.737 317.643 123.958 296.966 146.973 292.02C169.988 287.078 193.342 286.268 205.446 300.716C218.913 316.57 214.481 317.934 213.118 316.91C211.753 315.888 181.921 283.242 178.852 279.238C176.964 276.771 171.01 258.95 190.274 260.484C184.818 256.051 162.146 251.619 143.733 230.82C125.322 210.023 109.298 167.746 109.298 167.746C109.298 167.746 108.105 165.87 110.492 165.53C112.878 165.188 149.87 158.71 160.952 160.074C171.35 161.95 182.772 187.179 170.498 202.692C165.896 208.319 141.688 211.558 139.642 205.42C137.957 200.364 131.59 172.826 129.337 163.01" stroke="#C7B169" stroke-width="2.66667" stroke-miterlimit="10" stroke-linecap="round" stroke-linejoin="round"/>
<path d="M126.482 147.258C129.184 141.61 134.409 136.041 144.365 133.488" stroke="#C7B169" stroke-width="2.66667" stroke-miterlimit="10" stroke-linecap="round" stroke-linejoin="round"/>
<path d="M123.881 163.4C123.881 163.4 122.659 155.25 126.482 147.26" stroke="#C7B169" stroke-width="2.66667" stroke-miterlimit="10" stroke-linecap="round" stroke-linejoin="round"/>
<path d="M188.396 259.275C190.817 260.579 192.258 261.035 194.804 261.325C201.197 262.059 206.992 255.107 206.992 248.673C206.992 242.237 201.829 236.509 195.394 236.509" stroke="#C7B169" stroke-width="2.66667" stroke-miterlimit="10" stroke-linecap="round" stroke-linejoin="round"/>
<path d="M178.191 221.296C178.191 221.296 186.246 215.032 186.566 214.648C186.886 214.265 187.845 213.241 189.635 214.648C191.425 216.053 196.219 220.72 203.314 215.032C205.106 213.929 205.617 214.072 206.191 214.648C206.767 215.222 215.91 222.51 215.91 222.51C215.91 222.51 218.21 223.661 216.741 226.729C215.27 229.798 195.771 247.186 176.849 226.729C174.227 223.788 178.191 221.296 178.191 221.296Z" stroke="#C7B169" stroke-width="2.66667" stroke-miterlimit="10" stroke-linecap="round" stroke-linejoin="round"/>
<path d="M176.37 223.884L216.804 224.108" stroke="#C7B169" stroke-width="2.66667" stroke-miterlimit="10" stroke-linecap="round" stroke-linejoin="round"/>
</svg>
